X: 10701
T: Down With The French
R: jig
M: 6/8
K: Gmajor
d2 B d2 B|G2 G GAB|c2 B c2 B|ABG FED|
d2 B d2 B|G2 G GAB|c2 B AGF|1 G3- GBc:|2 G3- GFG||
|:AGA B2 G|F2 E D3|GDG BGB|d2 B G3|
AGA B2 G|F2 E D3|EFG AGF|1 G3 GFG:|2 G6||

